src/modules/75-ce/components/PerspectiveBuilder/images/pro-tip.svg

<svg fill="none" height="22" viewBox="0 0 14 22" width="14" xmlns="http://www.w3.org/2000/svg"><path d="m.392578 6.9996c1.160302-1.21307 3.041562-1.21307 4.201872 0 1.16031-1.21307 3.04157-1.21307 4.20187 0 1.16031-1.21307 3.04158-1.21307 4.20188 0 0-3.63926-2.8219-6.589444-6.30281-6.589444-3.48096 0-6.302812 2.950184-6.302812 6.589444z" fill="#adeefa"/><path d="m6.69583.410156c-1.16082 0-2.10188 2.949604-2.10208 6.588334.00035.00037.00075.00074.00114.00111 1.16031-1.21307 3.04157-1.21307 4.20188 0 .00035-.00037.00074-.00074.00114-.00111-.0002-3.63873-.94126-6.588334-2.10208-6.588334z" fill="#ff7d97"/><path d="m3.86864 11.4127h5.65486c.8675 0 1.5708.7353 1.5708 1.6422v5.9121c0 .9069-.7033 1.6422-1.5708 1.6422h-5.65486c-.86751 0-1.57079-.7353-1.57079-1.6422v-5.9121c0-.9069.70328-1.6422 1.57079-1.6422z" fill="#ffec80"/><path d="m5.12598 14.6163v-3.2042h3.14158v3.2042l-1.57079-1.177z" fill="#fff"/><g fill="#6b6d85"><path d="m13.391 7c0-3.85981-3.0036-7-6.69549-7-3.69192 0-6.69551 3.14019-6.69551 7 0 .12818.0571376.24638.1506.32299l4.4909 3.67991h-.77342c-1.08267 0-1.96349.9209-1.96349 2.0528v1.1085c0 .2267.17581.4106.3927.4106.21688 0 .39269-.1839.39269-.4106v-1.1085c0-.6791.5285-1.2317 1.1781-1.2317h.86448v2.7937c0 .1539.08235.2949.21328.3653.13093.0702.28855.0581.40821-.0316l1.34201-1.0056 1.342 1.0056c.06798.0509.14821.0769.22883.0769.0613 0 .1228-.015.17938-.0453.13093-.0704.21328-.2113.21328-.3653v-2.7937h.86338c.64957 0 1.17807.5526 1.17807 1.2317v5.912c0 .6792-.5285 1.2317-1.17807 1.2317h-5.65485c-.6496 0-1.1781-.5525-1.1781-1.2317v-1.1085c0-.2267-.17581-.4105-.39269-.4105-.21689 0-.3927.1838-.3927.4105v1.1085c0 1.1319.88082 2.0528 1.96349 2.0528h5.65485c1.08267 0 1.96347-.9209 1.96347-2.0528v-5.912c0-1.1319-.8808-2.0528-1.96347-2.0528h-.77341l4.49088-3.67991c.0935-.07661.1506-.19481.1506-.32299zm-.8436-.86866c-1.0452-.61444-2.3399-.59912-3.37302.04492-.05797-1.49283-.27297-2.87797-.61992-3.96557-.16552-.51887-.34451-.92109-.52802-1.231388 2.35636.569078 4.17826 2.615288 4.52096 5.152038zm-5.85189-5.310226c.27112 0 .72551.431946 1.11385 1.649336.32044 1.00447.5206 2.2909.57817 3.68692-.52104-.31691-1.10635-.47608-1.69202-.47608s-1.17099.15917-1.69202.47608c.05757-1.39602.25773-2.68245.57817-3.68692.38834-1.21739.84273-1.649336 1.11385-1.649336zm1.6286 6.285266-1.62805 3.87922-1.62833-3.87996c.94464-.80511 2.31197-.80482 3.25638.00074zm-4.05752.13396 1.54283 3.67626-4.79414-3.9281c.98685-.72286 2.35274-.6389 3.25131.25184zm4.85976-.00193c.89865-.88894 2.26325-.97228 3.24935-.24991l-4.79242 3.9267zm-3.76174-6.259108c-.18351.310298-.3625.712478-.52802 1.231388-.34695 1.0876-.56195 2.47278-.61991 3.96561-1.03315-.64404-2.32788-.65936-3.373046-.04492.342706-2.53679 2.164556-4.583 4.520976-5.152078zm2.50954 12.838998-.94931-.7113c-.06841-.0512-.14859-.0769-.22878-.0769s-.16038.0257-.22879.0769l-.94931.7113v-1.9943h2.35619z"/><path d="m9.36592 19.036c.21689 0 .3927-.1839.3927-.4106s-.17581-.4106-.3927-.4106h-1.21736c-.21689 0-.3927.1839-.3927.4106s.17581.4106.3927.4106z"/><path d="m2.297 16.4227c.10327 0 .20459-.044.27763-.1204.07305-.0763.11506-.1822.11506-.2902s-.04201-.2139-.11506-.2902c-.07304-.0764-.17436-.1203-.27763-.1203-.10328 0-.2046.0439-.27764.1203-.07304.0763-.11506.1822-.11506.2902s.04202.2139.11506.2902c.07304.0764.17436.1204.27764.1204z"/></g></svg>

<svg width="14" height="22" viewBox="0 0 14 22" fill="none" xmlns="http://www.w3.org/2000/svg">
<path d="M0.392578 6.9996C1.55288 5.78653 3.43414 5.78653 4.59445 6.9996C5.75476 5.78653 7.63602 5.78653 8.79632 6.9996C9.95663 5.78653 11.8379 5.78653 12.9982 6.9996C12.9982 3.36034 10.1763 0.410156 6.69539 0.410156C3.21443 0.410156 0.392578 3.36034 0.392578 6.9996Z" fill="#ADEEFA"/>
<path d="M6.69583 0.410156C5.53501 0.410156 4.59395 3.35976 4.59375 6.99849C4.5941 6.99886 4.5945 6.99923 4.59489 6.9996C5.7552 5.78653 7.63646 5.78653 8.79677 6.9996C8.79712 6.99923 8.79751 6.99886 8.79791 6.99849C8.79771 3.35976 7.85665 0.410156 6.69583 0.410156Z" fill="#FF7D97"/>
<path d="M3.86864 11.4127H9.5235C10.391 11.4127 11.0943 12.148 11.0943 13.0549V18.967C11.0943 19.8739 10.391 20.6092 9.5235 20.6092H3.86864C3.00113 20.6092 2.29785 19.8739 2.29785 18.967V13.0549C2.29785 12.148 3.00113 11.4127 3.86864 11.4127Z" fill="#FFEC80"/>
<path d="M5.12598 14.6163V11.4121H8.26756V14.6163L6.69677 13.4393L5.12598 14.6163Z" fill="white"/>
<path d="M13.391 7C13.391 3.14019 10.3874 0 6.69551 0C3.00359 0 0 3.14019 0 7C0 7.12818 0.0571376 7.24638 0.1506 7.32299L4.6415 11.0029H3.86808C2.78541 11.0029 1.90459 11.9238 1.90459 13.0557V14.1642C1.90459 14.3909 2.0804 14.5748 2.29729 14.5748C2.51417 14.5748 2.68998 14.3909 2.68998 14.1642V13.0557C2.68998 12.3766 3.21848 11.824 3.86808 11.824H4.73256V14.6177C4.73256 14.7716 4.81491 14.9126 4.94584 14.983C5.07677 15.0532 5.23439 15.0411 5.35405 14.9514L6.69606 13.9458L8.03806 14.9514C8.10604 15.0023 8.18627 15.0283 8.26689 15.0283C8.32819 15.0283 8.38969 15.0133 8.44627 14.983C8.5772 14.9126 8.65955 14.7717 8.65955 14.6177V11.824H9.52293C10.1725 11.824 10.701 12.3766 10.701 13.0557V18.9677C10.701 19.6469 10.1725 20.1994 9.52293 20.1994H3.86808C3.21848 20.1994 2.68998 19.6469 2.68998 18.9677V17.8592C2.68998 17.6325 2.51417 17.4487 2.29729 17.4487C2.0804 17.4487 1.90459 17.6325 1.90459 17.8592V18.9677C1.90459 20.0996 2.78541 21.0205 3.86808 21.0205H9.52293C10.6056 21.0205 11.4864 20.0996 11.4864 18.9677V13.0557C11.4864 11.9238 10.6056 11.0029 9.52293 11.0029H8.74952L13.2404 7.32299C13.3339 7.24638 13.391 7.12818 13.391 7ZM12.5474 6.13134C11.5022 5.5169 10.2075 5.53222 9.17438 6.17626C9.11641 4.68343 8.90141 3.29829 8.55446 2.21069C8.38894 1.69182 8.20995 1.2896 8.02644 0.979302C10.3828 1.54838 12.2047 3.59459 12.5474 6.13134ZM6.69551 0.821114C6.96663 0.821114 7.42102 1.25306 7.80936 2.47045C8.1298 3.47492 8.32996 4.76135 8.38753 6.15737C7.86649 5.84046 7.28118 5.68129 6.69551 5.68129C6.10984 5.68129 5.52452 5.84046 5.00349 6.15737C5.06106 4.76135 5.26122 3.47492 5.58166 2.47045C5.97 1.25306 6.42439 0.821114 6.69551 0.821114ZM8.32411 7.10638L6.69606 10.9856L5.06773 7.10564C6.01237 6.30053 7.3797 6.30082 8.32411 7.10638ZM4.26659 7.24034L5.80942 10.9166L1.01528 6.9885C2.00213 6.26564 3.36802 6.3496 4.26659 7.24034ZM9.12635 7.23841C10.025 6.34947 11.3896 6.26613 12.3757 6.9885L7.58328 10.9152L9.12635 7.23841ZM5.36461 0.979302C5.1811 1.2896 5.00211 1.69178 4.83659 2.21069C4.48964 3.29829 4.27464 4.68347 4.21668 6.1763C3.18353 5.53226 1.8888 5.51694 0.843634 6.13138C1.18634 3.59459 3.00819 1.54838 5.36461 0.979302ZM7.87415 13.8183L6.92484 13.107C6.85643 13.0558 6.77625 13.0301 6.69606 13.0301C6.61587 13.0301 6.53568 13.0558 6.46727 13.107L5.51796 13.8183V11.824H7.87415V13.8183Z" fill="#6B6D85"/>
<path d="M9.36592 19.036C9.58281 19.036 9.75862 18.8521 9.75862 18.6254C9.75862 18.3987 9.58281 18.2148 9.36592 18.2148H8.14856C7.93167 18.2148 7.75586 18.3987 7.75586 18.6254C7.75586 18.8521 7.93167 19.036 8.14856 19.036H9.36592Z" fill="#6B6D85"/>
<path d="M2.297 16.4227C2.40027 16.4227 2.50159 16.3787 2.57463 16.3023C2.64768 16.226 2.68969 16.1201 2.68969 16.0121C2.68969 15.9041 2.64768 15.7982 2.57463 15.7219C2.50159 15.6455 2.40027 15.6016 2.297 15.6016C2.19372 15.6016 2.0924 15.6455 2.01936 15.7219C1.94632 15.7982 1.9043 15.9041 1.9043 16.0121C1.9043 16.1201 1.94632 16.226 2.01936 16.3023C2.0924 16.3787 2.19372 16.4227 2.297 16.4227Z" fill="#6B6D85"/>
</svg>
